X:1
T:Title
%%score { ( 1 3 4 ) | ( 2 5 6 ) } { ( 7 9 10 14 ) | ( 8 11 12 13 ) }
L:1/8
M:3/4
K:F
V:1 treble nm="Bright Piano"
V:3 treble 
V:4 treble 
V:2 treble 
V:5 treble 
V:6 treble 
V:7 treble nm="Grand Piano"
V:9 treble 
V:10 treble 
V:14 treble 
V:8 treble 
V:11 treble 
V:12 treble 
V:13 treble 
V:1
 z6[Q:1/4=100] | z6 | z6 | z6 |[M:2/4] z4 |[M:19/32] z19/4 |[M:2/4] z4 |[M:3/8] z3 | %8
[M:9/8] z3 G3- G/4 z/4 z/ z z | z3 E3- E/4 z/4 z/ z z | (4:3:5EB-B/G/-G z3 D3 | %11
[M:3/4] (7:8:7D3/4E-E/8D3/4A,3/8- A,2- A,/4- |[M:3/8] [A,C-]/>C/-C3/2-C/4 z/4 | %13
 (3:2:4C3/2 A2- A/4E3/4 |[M:9/8] z3 F3- F/4 z/4 z/ z z | E3- E/4 z/4 z/ z z (4:3:5DE-E/F/-F | %16
[M:19/16] (3:2:8c4- c3/4 A4- A3/4 G2- G3/8 z2 z3/8 |[M:9/8] F6- F/4 z/4 z/ z z | %18
[M:4/4] (3:2:2A4 A2 A2 A2 | (3:2:2A4 F2 z2 D2 | (3:2:2c4 c2 c2 c2 |[M:9/8] z3 z c2- c3 | %22
[M:4/4] z4 (3:2:2A4 A2 |[M:17/16] (7:8:8A3/2-A3/32=B3/2-B3/32 c2- c/8 c2- c/8 | %24
[M:4/4] (3:2:2c3 d3 z4 |[M:3/4] z6 |[M:1/4] z2 |[M:3/4] z [G_B]- [GB]2- [GB]/4 z/4 z/ z | %28
 z F2- F/4 z/4 z/ z c- | c3/4 z/4 [G_B]- [GB]2- [GB]/4 z/4 z/ z |[M:2/4] z4 |[M:1/4] z2 | %32
[M:3/4] z [Ac]- [Ac]2- [Ac]/4 z/4 z/ z |[M:7/8] z d2 z z2 d3/4 z/4 |[M:29/32] z29/4 |[M:2/4] z4 | %36
 z4 |] %37
V:2
 z6 | z6 | z6 | z6 |[M:2/4] z4 |[M:19/32] z19/4 |[M:2/4] z4 |[M:3/8] z3 |[M:9/8] z9 | z9 | z9 | %11
[M:3/4] z6 |[M:3/8] z3 | z3 |[M:9/8] z9 | z9 |[M:19/16] z19/2 |[M:9/8] z9 |[M:4/4] z8 | z8 | z8 | %21
[M:9/8] z9 |[M:4/4] z8 |[M:17/16] z17/2 |[M:4/4] z8 |[M:3/4] z6 |[M:1/4] z2 | %27
[M:3/4] z/[K:bass] _A/-A/4 z/4 z/ z2 z2 | z C2- C/4 z/4 z/ z A- | A3/4 z/4 z z2 z2 |[M:2/4] z4 | %31
[M:1/4] z2[K:treble] |[M:3/4] z/ G/-G/4 z/4 z/[K:bass] z2 z2 | %33
[M:7/8] F,-F,/4 z/4 z/ z [B,,B,]- [B,,B,]2- [B,,B,]/4 z/4 z/ |[M:29/32] z29/4 |[M:2/4] z4 | z4 |] %37
V:3
 x6 | x6 | x6 | x6 |[M:2/4] x4 |[M:19/32] x19/4 |[M:2/4] x4 |[M:3/8] x3 | %8
[M:9/8] (4:3:3C A2 E z3 F3 | (4:3:5CA,-A,/F/-F z3 D3 | z3 E3- E/4 z/4 z/ z z |[M:3/4] x6 | %12
[M:3/8] x3 | x3 |[M:9/8] G3- G/4 z/4 z/ z z (4:3:5CF-F/E/-E | z3 D3- D/4 z/4 z/ z z | %16
[M:19/16] z/ z/ z/ z/ z/ z/ z/ z/ z/ z/ z/ z/ z/ z/ z/ z E- |[M:9/8] E3/4 z/4 z z z3 z3 | %18
[M:4/4] x8 | z4 E2- E/4 z/4 z/ z | x8 |[M:9/8] c2- c/4 z/4 z/ z3 z3 |[M:4/4] (3:2:2F3 F3 z4 | %23
[M:17/16] x17/2 |[M:4/4] z4 (3:2:2c4 A2 |[M:3/4] (3:2:4G4- G/F3/2 F3- |[M:1/4] F-F/4 z/4 z/ | %27
[M:3/4] z/ =B/-B/4 z/4 z/ C-C/4 z/4 z/ (3:2:2[DE]3/2[EA]3/2- | [EA]3/4 z/4 z z2 z2 | %29
 z/ =B/-B/4 z/4 z/ C-C/4 z/4 z/ (3:2:2[B,DG]3/2[A,_E^F]3/2 | %30
[M:2/4] (3:2:2[CEG]3/2[CFA]3/2- [CFA]2- |[M:1/4] [CFA]/4 z/4 z/ z | %32
[M:3/4] z/ B/-B/4 z/4 z/ C-C/4 z/4 z/ (3:2:2[CAc]3/2[DG=B]3/2 | %33
[M:7/8] [_EAc]-[EAc]/4 z/4 z/ z z z z2 |[M:29/32] x7 |[M:2/4] x4 | x4 |] %37
V:4
 x6 | x6 | x6 | x6 |[M:2/4] x4 |[M:19/32] x19/4 |[M:2/4] x4 |[M:3/8] x3 |[M:9/8] x9 | x9 | x9 | %11
[M:3/4] x6 |[M:3/8] x3 | x3 |[M:9/8] x9 | x9 | %16
[M:19/16] z/ z/ z/ z/ z/ z/ z/ z/ z/ z/ z/ z/ z/ z D-D/4 z/4 z/ |[M:9/8] x9 |[M:4/4] x8 | x8 | x8 | %21
[M:9/8] z2 A- A-A/4 z/4 z/ z z3 |[M:4/4] x8 |[M:17/16] x17/2 |[M:4/4] x8 |[M:3/4] x6 | %26
[M:1/4] z c- |[M:3/4] c3/4 z/4 C- C/4 z/4 z/ C- C/4 z/4 z/ z | z/ G/-G/4 z/4 z/ z C2- C/4 z/4 z/ | %29
 z C- C/4 z/4 z/ C- C/4 z/4 z/ z |[M:2/4] x4 |[M:1/4] z A- | %32
[M:3/4] A3/4 z/4 C- C/4 z/4 z/ C- C/4 z/4 z/ z |[M:7/8] z [DB]2- [DF-Bd-]/<[Fd]/- [Fd]2 F/[Fe]/- | %34
[M:29/32] (7:8:25[Fe]3/8-[Fe]/16-[Fe]/64[Fd]3/8-[Fd]/16-[Fd]/64[Fc]3/4-[Fc]/8-[Fc]/32-[A,Fc]3/4-[A,Fc]/8-[A,F-c-]/32[A,Fc]-[A,Fc]/4-[A,Fc]3/32-[A,Fc]/64[DEB]3/4-[DEB]/8-[DEB]/32.[CEA]3/8-[CEA]/16-[CEA]/64[B,EG]3/4- [B,EG]/8-[B,EG]/32- | %35
[M:2/4] [B,EG] [A,CF]3- | [A,CF] z z2 |] %37
V:5
 x6 | x6 | x6 | x6 |[M:2/4] x4 |[M:19/32] x19/4 |[M:2/4] x4 |[M:3/8] x3 |[M:9/8] x9 | x9 | x9 | %11
[M:3/4] x6 |[M:3/8] x3 | x3 |[M:9/8] x9 | x9 |[M:19/16] x19/2 |[M:9/8] x9 |[M:4/4] x8 | x8 | x8 | %21
[M:9/8] x9 |[M:4/4] x8 |[M:17/16] x17/2 |[M:4/4] x8 |[M:3/4] x6 |[M:1/4] z A- | %27
[M:3/4] A3/4[K:bass] z/4 z z C,- C,/4 z/4 z/ z | %28
 z/ [C,B,]/-[C,B,]/4 z/4 z/ z [F,A,]2- [F,A,]/4 z/4 z/ | z/ _A/-A/4 z/4 z/ z C,- C,/4 z/4 z/ z | %30
[M:2/4] x4 |[M:1/4] z[K:treble] F- |[M:3/4] F3/4 z/4 z[K:bass] z F,- F,/4 z/4 z/ z | %33
[M:7/8] z B,,2 z z2 [=B,,_A,]- | %34
[M:29/32] (7:8:28[B,,A,]3/8-[B,,A,]/16-[B,,A,]/64[=B,,_A,]3/8-[B,,A,]/16-[B,,A,]/64.[C,=A,]3/8-[C,A,]/16-[C,-A,]/64C,3/8-C,/16-C,/64.C,3/4-C,/8-C,/32C,-C,/4-C,3/32-C,/64G,,3/4-G,,/8-G,,/32.C,3/8-C,/16-C,/64C,3/4- C,/8-C,/32- | %35
[M:2/4] C, F,3- | F, z z2 |] %37
V:6
 x6 | x6 | x6 | x6 |[M:2/4] x4 |[M:19/32] x19/4 |[M:2/4] x4 |[M:3/8] x3 |[M:9/8] x9 | x9 | x9 | %11
[M:3/4] x6 |[M:3/8] x3 | x3 |[M:9/8] x9 | x9 |[M:19/16] x19/2 |[M:9/8] x9 |[M:4/4] x8 | x8 | x8 | %21
[M:9/8] x9 |[M:4/4] x8 |[M:17/16] x17/2 |[M:4/4] x8 |[M:3/4] x6 |[M:1/4] x2 | %27
[M:3/4] z[K:bass] C, C,-C,/4 z/4 z/ (3:2:2[C,C]3/2[C,C]3/2- | [C,C]/C/ .[F,A,]3 z2 | %29
 z C, C,-C,/4 z/4 z/ (3:2:2C,3/2C,3/2 |[M:2/4] (3:2:2C,3/2F,3/2- F,2- | %31
[M:1/4] F,/4 z/4 z/[K:treble] z |[M:3/4] z F,[K:bass] F,-F,/4 z/4 z/ (3:2:2F,3/2F,3/2 |[M:7/8] x7 | %34
[M:29/32] x7 |[M:2/4] x4 | x4 |] %37
V:7
 z2 z2 A>B | z2 z c [F_A=B]>[F=Ac] | [FBd]2 [FBd]2 (3def | [Aca][Acf] [Ac]3 c | %4
[M:2/4] [GB][Ec] [FA][Ec] | %5
[M:19/32] [DB]/-<[DB]/[C^FA]/-<[CFA]/[DG]/4-[DG]/4-[DG]/4-[DG]/4-[DG]/-<[DG]/-[_A,-=B,-DF-G]/[A,B,F]/4 | %6
[M:2/4] (3:2:2[A,CF]3 [B,CE]3 |[M:3/8] [A,CF]3 |[M:9/8] z3 G3- G/4 z/4 z/ z z | %9
 z3 E3- E/4 z/4 z/ z z | z3 E3- E/4 z/4 z/ z z | %11
[M:3/4] (7:8:8[DB]3/4[B,EB]-[B,EB]/8[=B,D_A]3/4[C=A]3/4F-F/8F3/4 |[M:3/8] [CEB]3- | %13
 [CEB]3/4 z/4 z z |[M:9/8] G3 [A,CF]3- [A,CF]/4 z/4 z/ [Fd]-[Fd]/4 z/4 z/ | %15
 [Ec]3- [Ec]3/4 z/4 z z z3 | %16
[M:19/16] (9:8:17[Ac]-[Ac]3/16-[CAc]-[CA-c-]3/16[CAc]3/2-[CAc]/4-[CAc]/32[Af]/- [Af]2- [Af]3/8-[Af]3/32[Gc]-[Gc]3/16D- D3/16[EBc]-[EBc]3/16 | %17
[M:9/8] z3 z3 (4:3:5AA-A/A/-A |[M:4/4] (9:8:8[DFA-][FA-][FA]3/2A [^CEA-][EA]A3/2-[EA] | %19
 (9:8:8[DFA-][FA-][FA]3/2F E-[^CE-][D-E]/ D2 | (9:8:8[EGc]cc3/2[EGc] [FAc][FAc][FAc]3/2[FAc] | %21
[M:9/8] z3 z c2 z3 |[M:4/4] (9:8:8[A,DF-][DF]F3/2-[DF] [^CEA-][EA-][EA]3/2A | %23
[M:17/16] (9:8:18[DFA]-[DFA]/16[DFA]-[DFA]/16[D_A=B]-[DAB]/16[DAB]-[DAB]/16[E=Ac]-[EAc]/-[EAc]3/32[EAc]-[EAc]/16[EG_Bc]-[EGBc]/16[Bc]/-[Bc]- [Bc]3/32 | %24
[M:4/4] (9:8:8[FAc][FAc][FBd]3/2[FBd] [FAc]fc3/2[FA] |[M:3/4] z6 |[M:1/4] z2 | %27
[M:3/4] z [Bg_b]- [Bgb]2- [Bgb]/4 z/4 z/ z | z6 | z [Bg]- [Bg]2- [Bg]/4 z/4 z/ z | %30
[M:2/4] (5:4:4[Geg][Afa]3/2- [CA-f-a-][CAfa]3/2 |[M:1/4] z2 | %32
[M:3/4] z [cac']- [cac']2- [cac']/4 z/4 z/ z |[M:7/8] z b2- b/4 z/4 z/ z z2 |[M:29/32] z29/4 | %35
[M:2/4] z4 | z4 |] %37
V:8
 z2 z2 F>G | [F,,F,]2 z [FA] [F,_E]2 | [B,,B,]2 [F,B,D]2 [F,=B,D]2 | z2 [F,A,C]4[K:treble] | %4
[M:2/4] G,[K:bass]C, F,A,, | %5
[M:19/32] z/4 z/4 z/4 z/4 z/4 z/4 z/ G,/4-G,/4-G,/4-G,/4-G,/4-G,/4-G,/-<G,/ z/4 | %6
[M:2/4] (3:2:2C,3 [C,,C,]3 |[M:3/8] [F,,F,]3- | %8
[M:9/8] [F,,F,]3/4 z/4 z z (4:3:5z A,-A,/A,/-A, [F,A,C]3- | %9
 [F,A,C]3/4 z/4 z z (4:3:5z G,-G,/G,/-G, [G,B,]3 | %10
 (4:3:5z [G,B,]-[G,B,]/[G,B,]/-[G,B,] z G,G, G,3 | %11
[M:3/4] (7:8:8C,3/4-[C,G,]-[C,-G,]/8[C,F,]3/4[F,,F,]3/4-[F,,F,C]-[F,,-F,-C]/8[F,,F,C]3/4 | %12
[M:3/8] [G,,G,]3 | (3:2:4C3/2 A2- A/4E3/4 | %14
[M:9/8][K:bass] (4:3:5z A,-A,/A,/-A, z3 (4:3:5z [F,A,]-[F,A,]/A,/-A, | %15
 (4:3:5z F,-F,/F,/-F, z3 (4:3:5z [_A,=B,E]-[A,B,E]/B,/-B, | %16
[M:19/16] (9:8:17C,-C,3/16-[C,A,]-[C,-A,]3/16[C,A,]3/2-[C,A,]/4-[C,A,]/32[F,A,C]/- [F,A,C]2- [F,A,C]3/8-[F,A,C]3/32[C,B,]-[C,B,]3/16[G,B,]- [G,B,]3/16[C,G,B,]-[C,G,B,]3/16 | %17
[M:9/8] [F,,F,]6- [F,,F,]/4 z/4 z/ z z | %18
[M:4/4] (9:8:8[D,,D,]-[D,,-D,-D][D,,-D,-D]3/2[D,,D,DF] [E,,E,]-[E,,-E,-^C][E,,-E,-CE]3/2[E,,E,C] | %19
 (9:8:8[F,,F,]-[F,,-F,-D][F,,-F,-D]3/2[F,,F,D] [A,,G,]-[A,,-G,-A,][A,,D,-F,-G,A,-]/ [D,F,A,]2 | %20
 (9:8:8[C,C]-[C,-C-EG][C,CEG]3/2[B,,B,] [A,,A,]/-[A,,A,]3/2[F,,F,]/- [F,,F,]2 | %21
[M:9/8] (4:3:5[^F,,^F,]-[F,,F,_E^F]-[F,,F,EF]/[A,,A,]/-[A,,A,]- [A,,A,]-[A,,A,]/4 z/4 z/ z [C,,C,]3 | %22
[M:4/4] (9:8:8[D,,C,]-[D,,-C,-A,][D,,-C,-A,D]3/2[D,,C,A,] [^C,,^C,]-[C,,-C,-^C][C,,-C,-C]3/2[C,,C,CE] | %23
[M:17/16] (7:8:10[D,,D,]3/2-[D,,D,]3/32[_A,,_A,]3/2-[A,,A,]3/32 [=A,,=A,]2- [A,,A,]/8[_A,,_A,]-[A,,A,]/16-[A,,A,EG]- [A,,A,EG]/16 | %24
[M:4/4] (9:8:7[F,,F,]2 [B,,B,]2- [B,,B,]/ [A,,A,]-[A,,-A,-FA][A,,A,FA]3/2[F,,F,] |[M:3/4] z6 | %26
[M:1/4] z c- |[M:3/4] c3/4 z/4 z z G,- G,/4 z/4 z/ z | z2[K:bass] z2[K:treble] z c- | %29
 c3/4[K:bass] z/4 C,- C,/4 z/4 z/ z z2 |[M:2/4] z4 |[M:1/4] z2[K:treble] | %32
[M:3/4] z/[K:bass] [Bg]/-[Bg]/4 z/4 z/ z2 z2 | %33
[M:7/8] z B,F,- F,/4 z/4 z/ z2 [F,=B,D]/-[F,B,D_A]/- | %34
[M:29/32] (7:8:26[F,B,DA]3/8-[F,B,DA]/16-[F,-B,-D-A]/64[F,B,D_A]3/8-[F,B,DA]/16-[F,B,DA]/64[C,C]3/4-[C,C]/8-[C,C]/32[F,A,]3/4-[F,A,]/8-[F,A,]/32[F,A,]-[F,A,]/4-[F,A,]3/32-[F,A,]/64[G,,G,]3/8-[G,,G,]/16-[G,,G,]/64[G,_B,]3/8-[G,B,]/16-[G,B,]/64[C,C]3/8-[C,C]/16-[C,C]/64[G,B,CE]3/4- z5/64 (7:8:2[G,B,CE]/8-[G,B,CE]/32- | %35
[M:2/4] [G,B,CE][F,A,C] C,F,,- | F,, z z2 |] %37
V:9
 x6 | [FAc]4 z2 | z2 z2 _A2 | x6 |[M:2/4] x4 | %5
[M:19/32] z/4 z/4 z/4 z/4 z/4 z/4 z/ =B,/4-B,/4-B,/4-B,/4-B,/-<B,/ z/4 z/ |[M:2/4] x4 |[M:3/8] x3 | %8
[M:9/8] (4:3:3C A2 E z .C2 F2- F3/4 z/4 | (4:3:5CA,-A,/F/-F z .B,2 D3 | %10
 (4:3:5EB-B/G/-G z B,B, [B,DB]3 |[M:3/4] x6 |[M:3/8] x3 | x3 |[M:9/8] z3 z3 [CA]-[CA]/4 z/4 z/ z | %15
 (4:3:5F-[B,F]-[B,F-]/[B,F]/-[B,F] [DFB]2- [DFB]3/4 z/4 (4:3:5[D_Ad][Ae]-[Ae]/[DFAd]/-[DFAd] | %16
[M:19/16] x9 |[M:9/8] [FAc]6- [FAc]/4 z/4 z/ z z |[M:4/4] x511/64 | x8 | x8 | %21
[M:9/8] (4:3:5[_E^FAc][Ac]-[Ac]/[EFA]/-[EFA] z [=EGB]2- [EGBc-e-g-c'-]/<[cegc']/- [cegc']2 | %22
[M:4/4] x511/64 |[M:17/16] x259/30 |[M:4/4] x8 |[M:3/4] x6 |[M:1/4] z [ac']- | %27
[M:3/4] [ac']3/4 z/4 z z [CE]- [CE]/4 z/4 z/ z | x6 | z2 z [CE]2- [CE]/4 z/4 z/ |[M:2/4] x4 | %31
[M:1/4] x2 |[M:3/4] z/ b/-b/4 z/4 z/ C-C/4 z/4 z/ (3:2:2[ca]3/2[=B_a]3/2 | %33
[M:7/8] [_ea]-[ea]/4 z/4 z/ D- D/4 z/4 z/ z z2 |[M:29/32] x7 |[M:2/4] z [Acf]3- | [Acf] z z2 |] %37
V:10
 x6 | z2 C2 z2 | x6 | x6 |[M:2/4] x4 |[M:19/32] x19/4 |[M:2/4] x4 |[M:3/8] x3 | %8
[M:9/8] z3 z2 C- C/4 z/4 z/ z z | z3 z2 B,- B,/4 z/4 z/ z z | x9 |[M:3/4] x6 |[M:3/8] x3 | x3 | %14
[M:9/8] (4:3:5A-[CA]-[CA-]/[CA]/-[CA-] A3 z2 [CEc] | x9 |[M:19/16] x9 |[M:9/8] x9 | %18
[M:4/4] x511/64 | x8 | x8 |[M:9/8] z3 [_E^FA]-[EFA]/4 z/4 z/ z z3 |[M:4/4] x511/64 | %23
[M:17/16] x259/30 |[M:4/4] x8 |[M:3/4] (3:2:4[FG]3 [CE]3/2[CF]3/2 [F,A,CF]3- | %26
[M:1/4] [F,A,CF]-[F,A,CF]/4 z/4 z/ | %27
[M:3/4] z/ [_a=b]/-[ab]/4 z/4 z/ [CE]-[CE]/4 z/4 z/ (3:2:2[Ede]3/2[Ace]3/2- | %28
 (9:8:12[C-A-c-e]3/8[C-Ace-]3/8[Ce]3/8[FAf]-[FAf]/8- [A,CFAf]-[A,CFAf]/8[FAc]3/8-[FAc]3/2-[FAc]3/8a-a/8- | %29
 a/-[_a-a]/4a/4-a/4 z/4 z/ [CE]-[CE]/4 z/4 z/ (3:2:2[eg]3/2[^F_e^f]3/2 |[M:2/4] x4 |[M:1/4] z a- | %32
[M:3/4] a3/4 z/4 z z C- C/4 z/4 z/ z |[M:7/8] z d2 [FBf]- [FBf]2- [FBf]/4 z/4 =e/- | %34
[M:29/32] (7:8:28e3/8-e/16-e/64f3/8-f/16-f/64[cac']3/4-[cac']/8-[cac']/32-[Ccac']3/4-[Ccac']/8-[Cc-a-c'-]/32[Ccac']-[Ccac']/4-[Ccac']3/32-[Ccac']/64[deb]3/8-[deb]/16-[deb]/64D3/8-D/16-D/64[cea]3/8-[cea]/16-[cea]/64[Bcg]3/4- [Bcg]/8-[Bcg]/32- | %35
[M:2/4] [Bcg] z z F,- | F, z z2 |] %37
V:11
 x6 | z2 [F,A,]2 z2 | x6 | [F,,F,]2 z2 z[K:treble] ^F |[M:2/4] x[K:bass] x3 | %5
[M:19/32] B,,/-<B,,/D,/-<D,/ z/4 z/4 z/4 z/4 z/4 z/4 z/ ^C,3/4 |[M:2/4] x4 |[M:3/8] x3 | %8
[M:9/8] z3 [F,,F,]3 z3 | z2 C- C/4 z/4 z/ z z z3 | C,3 C,3- C,/4 z/4 z/ z z |[M:3/4] x6 | %12
[M:3/8] x3 | x3 |[M:9/8][K:bass] F,,3 F,3- F,/4 z/4 z/ z z | %15
 B,,3 [B,,F,B,]3- [B,,F,B,]/4 z/4 z/ z z |[M:19/16] x9 |[M:9/8] x9 |[M:4/4] x511/64 | x8 | x8 | %21
[M:9/8] z3 z [G,,G,]2- [G,,G,]/4 z/4 z/ z z |[M:4/4] x511/64 |[M:17/16] x259/30 |[M:4/4] x8 | %25
[M:3/4] (3:2:4C,3 [C,,C,]3/2B,3/2 F,,3- |[M:1/4] F,,-F,,/4 z/4 z/ | %27
[M:3/4] z/ =B/-B/4 z/4 z/ G,-G,/4 z/4 z/ (3:2:2B,3/2C,3/2 | %28
 (3G,/-[G,GB][K:bass][F,,F,]3/2 z2[K:treble] z2 | z2[K:bass] G,-G,/4 z/4 z/ (3:2:2G3/2[G,CE]3/2- | %30
[M:2/4] [G,CE]-[G,CE]/4 z/4 z/ (3:2:2A,3/2[F,A,]3/2 |[M:1/4] z[K:treble] [Af]- | %32
[M:3/4] [Af]3/4[K:bass] z/4 F, z [F,A,]- [F,A,]/4 z/4 z/ z | %33
[M:7/8] [F,A,C]-[F,A,C]/4 z/4 z/ B, [B,,B,]- [B,,B,]2- [B,,B,]/4 z/4 z/ |[M:29/32] x7 |[M:2/4] x4 | %36
 x4 |] %37
V:12
 x6 | x6 | x6 | x5[K:treble] x |[M:2/4] x[K:bass] x3 |[M:19/32] x19/4 |[M:2/4] x4 |[M:3/8] x3 | %8
[M:9/8] x9 | A,,3- A,,/4 z/4 z/ z z z3 | x9 |[M:3/4] x6 |[M:3/8] x3 | x3 | %14
[M:9/8][K:bass] z3 z3 A,,3 | z3 z3 =B,,3 |[M:19/16] x9 |[M:9/8] x9 |[M:4/4] x511/64 | x8 | x8 | %21
[M:9/8] x9 |[M:4/4] x511/64 |[M:17/16] x259/30 |[M:4/4] x8 |[M:3/4] x6 |[M:1/4] x2 | %27
[M:3/4] z C,- C,2- C,/4 z/4 z/ z | z2[K:bass] z[K:treble] [F,A,C]2- [F,A,C]/4 z/4 z/ | %29
 z/[K:bass] =B/-B/4 z/4 z/ z G,2- G,/4 z/4 z/ |[M:2/4] z [F,,D,]- [F,,D,]/4 z/4 z/ z | %31
[M:1/4] x[K:treble] x | %32
[M:3/4] z[K:bass] F,,- [F,,F,-A,-]/<[F,A,]/-[F,A,]/4 z/4 z/ (3:2:2[F,A,C]3/2[F,=B,D]3/2 | %33
[M:7/8] z B,,-B,,/4 z/4 z/ z z z2 |[M:29/32] x7 |[M:2/4] x4 | x4 |] %37
V:13
 x6 | x6 | x6 | x5[K:treble] x |[M:2/4] x[K:bass] x3 |[M:19/32] x19/4 |[M:2/4] x4 |[M:3/8] x3 | %8
[M:9/8] x9 | z3 G,,3 z3 | x9 |[M:3/4] x6 |[M:3/8] x3 | x3 |[M:9/8][K:bass] x9 | x9 |[M:19/16] x9 | %17
[M:9/8] x9 |[M:4/4] x511/64 | x8 | x8 |[M:9/8] x9 |[M:4/4] x511/64 |[M:17/16] x259/30 |[M:4/4] x8 | %25
[M:3/4] x6 |[M:1/4] x2 |[M:3/4] x6 | x[K:bass] x2[K:treble] x3 | x/[K:bass] x11/2 |[M:2/4] x4 | %31
[M:1/4] x[K:treble] x |[M:3/4] x/[K:bass] x11/2 |[M:7/8] x7 |[M:29/32] x7 |[M:2/4] x4 | x4 |] %37
V:14
 x6 | x6 | x6 | x6 |[M:2/4] x4 |[M:19/32] x19/4 |[M:2/4] x4 |[M:3/8] x3 |[M:9/8] x9 | x9 | x9 | %11
[M:3/4] x6 |[M:3/8] x3 | x3 |[M:9/8] x9 | x9 |[M:19/16] x9 |[M:9/8] x9 |[M:4/4] x511/64 | x8 | x8 | %21
[M:9/8] x9 |[M:4/4] x511/64 |[M:17/16] x259/30 |[M:4/4] x8 |[M:3/4] x6 |[M:1/4] x2 |[M:3/4] x6 | %28
 x6 | x6 |[M:2/4] x4 |[M:1/4] x2 |[M:3/4] x6 |[M:7/8] z z2 d3 [_Ad]3/4 z/4 |[M:29/32] x7 | %35
[M:2/4] x4 | x4 |] %37

